X: 37072
T: Silver Spire, The
R: reel
M: 4/4
K: Dmajor
|:D2~D2 FA~A2|dcde fdAF|G2BG FADF|~E3F E2FE|
D2~D2 FA~A2|dcde fdAF|GABG FADF|~E3F D3z:|
|:AD~D2 EFGE|FDEF GABc|dcBA Bcde|fdgf e3A|
defd ceAc|dcdB AFDF|GABG FADF|~E3F D3z:|

